images/goal.svg

<svg fill="none" height="115" viewBox="0 0 230 115" width="230" xmlns="http://www.w3.org/2000/svg"><path d="m24.3554 88.8667c-5.7244-.3319-10.6607-1.6593-14.80881-3.9822-4.06516-2.323-7.25922-5.7245-9.582178-10.2045-2.239992-4.5629-3.359982-10.2873-3.359982-17.1732 0-6.9689.8711-12.7348 2.613318-17.2977 1.742215-4.6459 4.148132-8.2548 7.217752-10.8266 3.15258-2.5719 6.9274-4.3971 11.3244-5.4756s9.2918-1.6177 14.6844-1.6177c5.2266 0 9.7896.6637 13.6888 1.9911 3.8993 1.3274 6.9274 3.2355 9.0844 5.7244s3.2356 5.5585 3.2356 9.2088v48.5332c0 4.397-.7052 8.2547-2.1156 11.5733-1.4104 3.401-3.5259 6.222-6.3466 8.462-2.7378 2.323-6.0978 4.065-10.08 5.227-3.8992 1.161-8.4207 1.742-13.5644 1.742-5.5585 0-10.3288-.415-14.311-1.244-3.89927-.747-6.88592-1.701-8.95999-2.863v-16.3018c1.24444.4978 3.06962 1.1615 5.47553 1.9911 2.40596.8296 5.10216 1.4933 8.08886 1.9911 2.9867.5807 5.9733.8711 8.96.8711 3.8992 0 6.8859-.5393 8.9599-1.6178 2.1571-1.0785 3.6504-2.5303 4.48-4.3555s1.2444-3.8992 1.2444-6.2222v-10.2044l3.6089 2.6133c-1.3274 1.9082-2.9037 3.5674-4.7288 4.9778-1.8252 1.4103-3.9823 2.4889-6.4711 3.2355-2.4059.8296-5.1852 1.2445-8.3378 1.2445zm4.7289-13.9378c2.157 0 4.1481-.2074 5.9733-.6222 1.8252-.4978 3.5674-1.2029 5.2266-2.1155v-28.871c0-1.7422-.4977-3.0696-1.4933-3.9822-.9955-.9126-2.24-1.5348-3.7333-1.8667-1.4933-.3318-3.0696-.4978-4.7289-.4978-3.8162 0-6.8444.8297-9.0844 2.4889-2.157 1.6593-3.7333 3.9822-4.7288 6.9689-.9126 2.9037-1.3689 6.2222-1.3689 9.9555 0 5.7244 1.2859 10.2459 3.8577 13.5644 2.5719 3.3185 5.9319 4.9777 10.08 4.9777zm70.7804 13.9378c-10.6192 0-18.6251-2.8208-24.0177-8.4622-5.3096-5.7245-7.9644-14.1037-7.9644-25.1377 0-11.8637 2.6963-20.3673 8.0889-25.511 5.4755-5.2267 13.4399-7.84 23.8932-7.84 7.0523 0 12.9423 1.203 17.6713 3.6089 4.812 2.3229 8.42 5.9318 10.826 10.8266 2.489 4.8948 3.734 11.2 3.734 18.9155 0 11.034-2.78 19.4132-8.338 25.1377-5.559 5.6414-13.523 8.4622-23.8933 8.4622zm0-14.8089c3.0693 0 5.6003-.7052 7.5913-2.1155 2.074-1.4933 3.609-3.6089 4.604-6.3467 1.079-2.8207 1.618-6.2636 1.618-10.3288 0-4.6459-.539-8.2963-1.618-10.9511-.995-2.7377-2.53-4.6874-4.604-5.8488-2.074-1.2445-4.605-1.8667-7.5913-1.8667-3.1526 0-5.7244.6222-7.7155 1.8667-1.9911 1.2444-3.4845 3.2355-4.48 5.9733-.9126 2.6548-1.3689 6.2637-1.3689 10.8266 0 6.3052 1.0785 11.034 3.2356 14.1866 2.2399 3.0696 5.6829 4.6044 10.3288 4.6044zm66.8073 14.8089c-3.817 0-7.426-.3734-10.827-1.12-3.318-.6637-6.264-1.7837-8.836-3.36-2.488-1.6593-4.438-3.8578-5.848-6.5956-1.411-2.8207-2.116-6.3051-2.116-10.4532 0-3.8993.788-7.3008 2.365-10.2044 1.659-2.9037 4.148-5.1437 7.466-6.72 3.319-1.5763 7.508-2.3645 12.569-2.3645 2.821 0 5.558.2904 8.213.8712 2.655.5807 5.02 1.3688 7.094 2.3644 2.157.9955 3.857 2.0741 5.102 3.2355l.746 8.96c-1.659-.9956-3.65-1.7837-5.973-2.3644-2.323-.5808-4.812-.8711-7.466-.8711-4.066 0-7.052.6222-8.96 1.8666-1.826 1.1615-2.738 3.0281-2.738 5.6 0 1.5763.456 2.9866 1.369 4.2311.912 1.2444 2.115 2.1985 3.609 2.8622 1.576.6637 3.194.9955 4.853.9955 4.231 0 7.176-.2903 8.835-.8711 1.743-.5807 2.614-1.7422 2.614-3.4844v-23.1466c0-3.8162-1.245-6.554-3.734-8.2133-2.406-1.7422-5.848-2.6133-10.328-2.6133-3.651 0-7.343.6637-11.076 1.9911-3.65 1.2445-6.637 2.7793-8.96 4.6044v-16.4266c2.157-1.3274 5.476-2.5718 9.956-3.7333 4.563-1.1615 9.665-1.7422 15.306-1.7422 1.991 0 4.19.1659 6.596.4978 2.406.3318 4.812.9541 7.217 1.8666 2.406.8297 4.605 2.0741 6.596 3.7334 2.074 1.6592 3.733 3.7748 4.978 6.3466 1.244 2.5718 1.866 5.7659 1.866 9.5822l-.124 29.7421c0 3.5674-1.203 6.4711-3.609 8.7111-2.406 2.157-5.89 3.7333-10.453 4.7288-4.48.9956-9.914 1.4934-16.302 1.4934zm62.877-1.8667h-18.418v-86.737424h18.418z" fill="#fff" opacity=".1"/></svg>

<svg width="230" height="115" viewBox="0 0 230 115" fill="none" xmlns="http://www.w3.org/2000/svg">
<path opacity="0.1" d="M24.3554 88.8667C18.631 88.5348 13.6947 87.2074 9.54659 84.8845C5.48143 82.5615 2.28737 79.16 -0.035588 74.68C-2.27558 70.1171 -3.39557 64.3927 -3.39557 57.5068C-3.39557 50.5379 -2.52447 44.772 -0.782252 40.2091C0.959963 35.5632 3.36588 31.9543 6.4355 29.3825C9.58808 26.8106 13.3629 24.9854 17.7599 23.9069C22.1569 22.8284 27.0517 22.2892 32.4443 22.2892C37.6709 22.2892 42.2339 22.9529 46.1331 24.2803C50.0324 25.6077 53.0605 27.5158 55.2175 30.0047C57.3745 32.4936 58.4531 35.5632 58.4531 39.2135V87.7467C58.4531 92.1437 57.7479 96.0014 56.3375 99.32C54.9271 102.721 52.8116 105.542 49.9909 107.782C47.2531 110.105 43.8931 111.847 39.9109 113.009C36.0117 114.17 31.4902 114.751 26.3465 114.751C20.788 114.751 16.0177 114.336 12.0355 113.507C8.13623 112.76 5.14958 111.806 3.07551 110.644V94.3422C4.31995 94.84 6.14513 95.5037 8.55104 96.3333C10.957 97.1629 13.6532 97.8266 16.6399 98.3244C19.6266 98.9051 22.6132 99.1955 25.5999 99.1955C29.4991 99.1955 32.4858 98.6562 34.5598 97.5777C36.7169 96.4992 38.2102 95.0474 39.0398 93.2222C39.8694 91.397 40.2842 89.323 40.2842 87V76.7956L43.8931 79.4089C42.5657 81.3171 40.9894 82.9763 39.1643 84.3867C37.3391 85.797 35.182 86.8756 32.6932 87.6222C30.2873 88.4518 27.508 88.8667 24.3554 88.8667ZM29.0843 74.9289C31.2413 74.9289 33.2324 74.7215 35.0576 74.3067C36.8828 73.8089 38.625 73.1038 40.2842 72.1912V43.3202C40.2842 41.578 39.7865 40.2506 38.7909 39.338C37.7954 38.4254 36.5509 37.8032 35.0576 37.4713C33.5643 37.1395 31.988 36.9735 30.3287 36.9735C26.5125 36.9735 23.4843 37.8032 21.2443 39.4624C19.0873 41.1217 17.511 43.4446 16.5155 46.4313C15.6029 49.335 15.1466 52.6535 15.1466 56.3868C15.1466 62.1112 16.4325 66.6327 19.0043 69.9512C21.5762 73.2697 24.9362 74.9289 29.0843 74.9289ZM99.8647 88.8667C89.2455 88.8667 81.2396 86.0459 75.847 80.4045C70.5374 74.68 67.8826 66.3008 67.8826 55.2668C67.8826 43.4031 70.5789 34.8995 75.9715 29.7558C81.447 24.5291 89.4114 21.9158 99.8647 21.9158C106.917 21.9158 112.807 23.1188 117.536 25.5247C122.348 27.8476 125.956 31.4565 128.362 36.3513C130.851 41.2461 132.096 47.5513 132.096 55.2668C132.096 66.3008 129.316 74.68 123.758 80.4045C118.199 86.0459 110.235 88.8667 99.8647 88.8667ZM99.8647 74.0578C102.934 74.0578 105.465 73.3526 107.456 71.9423C109.53 70.449 111.065 68.3334 112.06 65.5956C113.139 62.7749 113.678 59.332 113.678 55.2668C113.678 50.6209 113.139 46.9705 112.06 44.3157C111.065 41.578 109.53 39.6283 107.456 38.4669C105.382 37.2224 102.851 36.6002 99.8647 36.6002C96.7121 36.6002 94.1403 37.2224 92.1492 38.4669C90.1581 39.7113 88.6647 41.7024 87.6692 44.4402C86.7566 47.095 86.3003 50.7039 86.3003 55.2668C86.3003 61.572 87.3788 66.3008 89.5359 69.4534C91.7758 72.523 95.2188 74.0578 99.8647 74.0578ZM166.672 88.8667C162.855 88.8667 159.246 88.4933 155.845 87.7467C152.527 87.083 149.581 85.963 147.009 84.3867C144.521 82.7274 142.571 80.5289 141.161 77.7911C139.75 74.9704 139.045 71.486 139.045 67.3379C139.045 63.4386 139.833 60.0371 141.41 57.1335C143.069 54.2298 145.558 51.9898 148.876 50.4135C152.195 48.8372 156.384 48.049 161.445 48.049C164.266 48.049 167.003 48.3394 169.658 48.9202C172.313 49.5009 174.678 50.289 176.752 51.2846C178.909 52.2801 180.609 53.3587 181.854 54.5201L182.6 63.4801C180.941 62.4845 178.95 61.6964 176.627 61.1157C174.304 60.5349 171.815 60.2446 169.161 60.2446C165.095 60.2446 162.109 60.8668 160.201 62.1112C158.375 63.2727 157.463 65.1393 157.463 67.7112C157.463 69.2875 157.919 70.6978 158.832 71.9423C159.744 73.1867 160.947 74.1408 162.441 74.8045C164.017 75.4682 165.635 75.8 167.294 75.8C171.525 75.8 174.47 75.5097 176.129 74.9289C177.872 74.3482 178.743 73.1867 178.743 71.4445V48.2979C178.743 44.4817 177.498 41.7439 175.009 40.0846C172.603 38.3424 169.161 37.4713 164.681 37.4713C161.03 37.4713 157.338 38.135 153.605 39.4624C149.955 40.7069 146.968 42.2417 144.645 44.0668V27.6402C146.802 26.3128 150.121 25.0684 154.601 23.9069C159.164 22.7454 164.266 22.1647 169.907 22.1647C171.898 22.1647 174.097 22.3306 176.503 22.6625C178.909 22.9943 181.315 23.6166 183.72 24.5291C186.126 25.3588 188.325 26.6032 190.316 28.2625C192.39 29.9217 194.049 32.0373 195.294 34.6091C196.538 37.1809 197.16 40.375 197.16 44.1913L197.036 73.9334C197.036 77.5008 195.833 80.4045 193.427 82.6445C191.021 84.8015 187.537 86.3778 182.974 87.3733C178.494 88.3689 173.06 88.8667 166.672 88.8667ZM229.549 87H211.131V0.262576H229.549V87Z" fill="white"/>
</svg>
